assets/main/skype.svg

<svg width="20" height="20" viewBox="0 0 20 20" fill="none" xmlns="http://www.w3.org/2000/svg">
<path d="M11.31 18.4C9.98768 18.6066 8.63529 18.4979 7.3629 18.083C6.09051 17.6681 4.93407 16.9586 3.98773 16.0122C3.04138 15.0659 2.33187 13.9095 1.91695 12.6371C1.50203 11.3647 1.39342 10.0123 1.59997 8.69C1.07871 7.69851 0.88823 6.56629 1.05638 5.45882C1.22454 4.35134 1.74251 3.32669 2.53458 2.53461C3.32666 1.74253 4.35132 1.22456 5.45879 1.05641C6.56626 0.888256 7.69848 1.07873 8.68997 1.6C10.0123 1.39345 11.3647 1.50206 12.6371 1.91698C13.9094 2.3319 15.0659 3.04141 16.0122 3.98775C16.9586 4.9341 17.6681 6.09053 18.083 7.36292C18.4979 8.63531 18.6065 9.9877 18.4 11.31C18.9212 12.3015 19.1117 13.4337 18.9436 14.5412C18.7754 15.6487 18.2574 16.6733 17.4654 17.4654C16.6733 18.2575 15.6486 18.7754 14.5412 18.9436C13.4337 19.1117 12.3015 18.9213 11.31 18.4ZM10.052 15.156H10.012C12.884 15.156 14.315 13.77 14.315 11.913C14.315 10.715 13.764 9.442 11.589 8.955L9.60597 8.515C8.85097 8.343 7.98397 8.115 7.98397 7.4C7.98397 6.685 8.60397 6.187 9.70797 6.187C11.938 6.187 11.735 7.715 12.839 7.715C13.415 7.715 13.932 7.373 13.932 6.785C13.932 5.415 11.735 4.385 9.87597 4.385C7.85497 4.385 5.70297 5.244 5.70297 7.529C5.70297 8.627 6.09697 9.799 8.26297 10.342L10.952 11.013C11.768 11.215 11.97 11.672 11.97 12.085C11.97 12.772 11.286 13.443 10.052 13.443C7.63497 13.443 7.97397 11.586 6.67797 11.586C6.09797 11.586 5.67497 11.984 5.67497 12.557C5.67497 13.671 7.02697 15.155 10.052 15.155V15.156Z" fill="white"/>
</svg>

<svg width="20" height="20" fill="none" xmlns="http://www.w3.org/2000/svg"><path d="M11.31 18.4A8.5 8.5 0 011.6 8.69 5.25 5.25 0 018.69 1.6a8.5 8.5 0 019.71 9.71 5.25 5.25 0 01-7.09 7.09zm-1.258-3.244h-.04c2.872 0 4.303-1.386 4.303-3.243 0-1.198-.551-2.471-2.726-2.958l-1.983-.44c-.755-.172-1.622-.4-1.622-1.115s.62-1.213 1.724-1.213c2.23 0 2.027 1.528 3.131 1.528.576 0 1.093-.342 1.093-.93 0-1.37-2.197-2.4-4.056-2.4-2.021 0-4.173.859-4.173 3.144 0 1.098.394 2.27 2.56 2.813l2.689.671c.816.202 1.018.659 1.018 1.072 0 .687-.684 1.358-1.918 1.358-2.417 0-2.078-1.857-3.374-1.857-.58 0-1.003.398-1.003.971 0 1.114 1.352 2.598 4.377 2.598v.001z" fill="#fff"/></svg>
